dist/img/partner_4.svg

<svg width="191" height="30" viewBox="0 0 191 30" fill="none" xmlns="http://www.w3.org/2000/svg">
<path d="M17.9504 0.0418418C21.2559 -0.180646 24.625 0.48681 27.5809 1.98066C31.9671 4.14197 35.4634 8.01962 37.0844 12.5965C37.8154 14.6307 38.1968 16.7602 38.1968 18.9215V26.8993C38.1968 27.2171 38.1968 27.5668 38.1332 27.8846C37.9425 28.6792 37.3704 29.4102 36.6076 29.7599C36.0673 30.0141 35.4634 30.0459 34.923 29.9506C33.7152 29.7281 32.7617 28.5839 32.7617 27.3443C32.7617 24.8651 32.7617 22.386 32.7617 19.9068C32.7935 19.2076 32.7935 18.4448 32.4121 17.8409C31.8082 16.6966 30.2826 16.1563 29.1066 16.6331C28.0895 16.9827 27.3585 18.0316 27.3267 19.1122C27.3267 21.6232 27.3267 24.1341 27.3267 26.645C27.3267 27.1218 27.3585 27.5985 27.1995 28.0435C26.9453 28.9335 26.2142 29.6327 25.3243 29.887C24.1483 30.2048 22.8133 29.6963 22.2412 28.6156C21.828 27.98 21.8598 27.1854 21.8916 26.4543C21.8916 23.9434 21.8916 21.4642 21.8916 18.9533C21.8598 17.6819 20.811 16.5377 19.5714 16.3788C18.745 16.2517 17.8868 16.5377 17.2829 17.1098C16.7426 17.6184 16.4566 18.3494 16.4566 19.0804V26.359C16.4566 26.9629 16.5201 27.5986 16.2976 28.1707C15.948 29.2195 14.8991 29.9823 13.7867 29.9506C12.6425 30.0141 11.53 29.2195 11.1804 28.1707C10.9897 27.6303 11.0215 27.09 11.0215 26.5179C11.0215 24.007 11.0215 21.496 11.0215 18.9851C11.0215 17.7455 10.0362 16.6013 8.82839 16.3788C7.71595 16.1563 6.50816 16.6966 5.93605 17.7137C5.71356 18.1269 5.58643 18.6037 5.58643 19.0804V27.2489C5.58643 28.0435 5.2368 28.8381 4.63291 29.3467C3.71117 30.1413 2.21733 30.2048 1.26381 29.4738C0.564559 28.997 0.151367 28.1707 0.151367 27.3125V19.0487C0.151367 15.9338 0.945967 12.819 2.43981 10.0538C3.64761 7.79713 5.33216 5.79473 7.33455 4.20553C10.2905 1.72638 14.0728 0.26433 17.9504 0.0418418Z" fill="white"/>
<path d="M92.2288 9.61071H88.0969C88.2558 6.71836 88.8597 4.11208 91.4978 2.45931C94.1358 0.838327 97.0282 0.45692 100.048 0.711192C101.669 0.838327 103.29 1.18796 104.783 1.8872C107.422 3.09499 108.725 5.16095 108.725 8.05329C108.725 13.1705 108.725 18.2877 108.725 23.405C108.725 25.2802 109.106 25.6298 110.981 25.4391C111.172 25.4073 111.395 25.3756 111.585 25.3438C111.617 25.4391 111.617 25.5345 111.617 25.5981V28.7129C110.123 29.2214 108.598 29.3803 107.104 28.9672C105.991 28.6493 105.292 27.8547 104.911 26.8058C104.72 26.2655 104.593 25.6934 104.434 25.0895C104.275 25.2802 104.148 25.4391 103.989 25.5981C100.715 28.9036 96.8375 30.3021 92.2606 29.1261C89.0186 28.2997 86.7937 25.3438 86.6984 21.9747C86.6666 20.894 86.7619 19.8134 87.0162 18.7645C87.6201 16.3489 89.3365 14.8868 91.4978 13.9015C93.0234 13.2023 94.6762 13.0116 96.3289 12.7891C98.2678 12.5348 100.175 12.3123 102.114 12.0263C103.417 11.8356 104.084 11.1363 104.275 9.8332C104.688 7.19513 103.512 5.44701 100.969 4.81133C99.4438 4.42992 97.8864 4.36636 96.3289 4.65241C94.0405 5.0656 92.7691 6.36875 92.3242 8.62541C92.3559 8.94325 92.2924 9.26108 92.2288 9.61071ZM104.402 14.6961C102.495 15.7132 100.652 15.9675 98.7763 16.2536C97.2189 16.5078 95.6297 16.7303 94.1041 17.2071C92.1017 17.8745 91.1799 19.5273 91.3706 21.7522C91.5296 23.5957 92.7691 25.0895 94.7715 25.4073C97.8546 25.9159 100.588 25.0577 102.749 22.7693C103.385 22.1018 103.894 21.1483 104.021 20.2583C104.307 18.4784 104.275 16.6667 104.402 14.6961ZM163.298 20.0359C163.203 20.4808 163.139 20.8622 163.044 21.2119C161.264 26.6469 157.64 28.9671 153.254 29.4757C145.658 30.3021 141.303 25.3438 140.191 20.0676C139.301 15.8722 139.428 11.7085 141.272 7.76724C143.02 4.04851 145.817 1.60114 149.98 0.870111C154.97 -0.0198399 162.027 2.45931 163.203 10.2464C163.52 12.2488 163.584 14.3147 163.775 16.4125H144.45C144.609 19.273 145.054 21.9429 147.152 24.0089C148.01 24.867 149.122 25.2802 150.33 25.5027C154.239 26.2019 157.481 24.3267 158.753 20.5444C158.88 20.1312 159.071 20.0041 159.484 20.0359C160.723 20.0359 161.963 20.0359 163.298 20.0359ZM144.609 12.7255H159.071C158.912 11.041 158.626 9.48357 157.831 8.02151C157.068 6.62301 155.956 5.60593 154.43 5.09739C149.44 3.38105 144.291 7.35405 144.609 12.7255ZM173.691 28.554H169.305V1.28331H173.469V5.09739C173.787 4.74776 173.977 4.52527 174.168 4.30279C177.156 0.901901 180.906 0.011946 185.165 1.06082C188.121 1.79185 189.774 3.88959 190.346 6.81372C190.569 8.02151 190.727 9.26109 190.727 10.4689C190.759 16.3171 190.759 22.1654 190.759 28.0136C190.759 28.1726 190.727 28.3315 190.727 28.5222H186.246V27.7911C186.246 22.3243 186.278 16.8575 186.214 11.3906C186.214 10.1828 186.023 8.94324 185.674 7.76724C185.102 5.8602 183.576 4.84311 181.574 4.74776C177.919 4.62062 175.026 6.55944 174.136 9.80141C173.818 10.9774 173.723 12.217 173.723 13.4566C173.691 18.2559 173.691 23.0235 173.691 27.7594V28.554ZM115.876 1.28331H120.103V12.8527C120.358 12.5984 120.517 12.4713 120.676 12.3123C124.14 8.78432 127.604 5.22452 131.069 1.6965C131.355 1.37866 131.641 1.25152 132.086 1.25152C133.707 1.28331 135.36 1.25152 137.14 1.25152C136.885 1.50579 136.758 1.66471 136.599 1.82363C133.548 4.87489 130.529 7.95794 127.445 10.9774C127.096 11.327 127.096 11.5495 127.318 11.9309C130.656 17.2389 133.961 22.5468 137.267 27.8547C137.394 28.0454 137.489 28.2361 137.648 28.5222C137.426 28.554 137.267 28.554 137.076 28.554C135.55 28.554 134.057 28.554 132.531 28.554C132.118 28.554 131.927 28.395 131.705 28.0772C129.162 23.8181 126.619 19.5591 124.076 15.2683C123.949 15.0776 123.854 14.8869 123.695 14.6644C122.519 15.8404 121.375 16.9528 120.231 18.1288C120.072 18.2877 120.04 18.5738 120.04 18.7963C120.04 21.784 120.04 24.7717 120.04 27.7594V28.5222C119.213 28.5222 118.387 28.5222 117.592 28.5222C117.02 28.5222 116.226 28.6811 115.908 28.3633C115.622 28.109 115.781 27.2826 115.781 26.7105V2.01434C115.876 1.85542 115.876 1.60115 115.876 1.28331ZM67.0876 1.25152C63.655 4.65241 60.3176 7.98973 56.9485 11.327C60.5719 17.1117 64.0999 22.7693 67.6915 28.554C67.4055 28.554 67.2148 28.5857 67.0241 28.5857C65.562 28.5857 64.0682 28.5857 62.6061 28.5857C62.1929 28.5857 61.9386 28.4268 61.7161 28.0772C59.1734 23.8181 56.6307 19.5591 54.088 15.2683C53.9926 15.0776 53.8655 14.9186 53.7066 14.6644C53.0709 15.3318 52.4988 16.0629 51.7995 16.5714C50.3692 17.6521 49.9561 18.987 50.0514 20.7669C50.2103 23.0871 50.0832 25.4391 50.0832 27.7594V28.5222H45.8877V1.28331H50.0832V12.662C50.1785 12.7255 50.2739 12.7891 50.3375 12.8527C50.4646 12.662 50.5282 12.4395 50.6553 12.2806C54.088 8.75255 57.5524 5.2563 60.9851 1.6965C61.3029 1.37866 61.589 1.21974 62.0658 1.25152C63.496 1.28331 64.9263 1.25152 66.3566 1.25152C66.5791 1.25152 66.7698 1.25152 67.0876 1.25152ZM75.4786 5.79663C77.6082 2.6818 79.8648 0.0755197 84.0603 0.838335V5.51057C82.9479 5.57414 81.8354 5.54236 80.7866 5.76485C78.2121 6.30518 76.2097 8.65719 75.7965 11.5177C75.7329 12.0899 75.6693 12.662 75.6693 13.2341C75.6693 18.097 75.6693 22.96 75.6693 27.8229V28.5857H71.3467V1.34687H75.4786C75.4786 2.77715 75.4786 4.20743 75.4786 5.79663Z" fill="white"/>
</svg>

<svg width="191" height="30" fill="none" xmlns="http://www.w3.org/2000/svg"><path d="M17.95.042a18.694 18.694 0 019.63 1.939c4.387 2.161 7.883 6.039 9.504 10.616a18.668 18.668 0 011.113 6.325v7.977c0 .318 0 .668-.064.986-.19.794-.763 1.525-1.525 1.875-.54.254-1.145.286-1.685.19-1.208-.222-2.161-1.366-2.161-2.606v-7.437c.032-.7.032-1.462-.35-2.066-.604-1.144-2.13-1.685-3.305-1.208-1.017.35-1.748 1.399-1.78 2.48v7.532c0 .477.031.954-.128 1.399-.254.89-.985 1.589-1.875 1.843-1.176.318-2.51-.19-3.083-1.271-.413-.636-.381-1.43-.35-2.162v-7.5c-.031-1.272-1.08-2.416-2.32-2.575a2.76 2.76 0 00-2.288.73c-.54.51-.826 1.24-.826 1.971v7.279c0 .604.063 1.24-.16 1.812-.349 1.049-1.398 1.811-2.51 1.78-1.145.063-2.257-.732-2.607-1.78-.19-.54-.159-1.081-.159-1.653v-7.533c0-1.24-.985-2.384-2.193-2.606a2.755 2.755 0 00-2.892 1.335c-.222.413-.35.89-.35 1.366v8.169c0 .795-.35 1.59-.953 2.098-.922.794-2.416.858-3.37.127C.566 28.997.152 28.17.152 27.312V19.05c0-3.115.795-6.23 2.289-8.995a18.877 18.877 0 014.895-5.848C10.29 1.726 14.073.264 17.95.042zM92.229 9.61h-4.132c.159-2.892.763-5.498 3.4-7.15C94.137.837 97.029.456 100.049.71c1.621.127 3.242.477 4.735 1.176 2.639 1.208 3.942 3.274 3.942 6.166v15.352c0 1.875.381 2.225 2.256 2.034.191-.032.414-.063.604-.095.032.095.032.19.032.254v3.115c-1.494.508-3.019.667-4.513.254-1.113-.318-1.812-1.112-2.193-2.161-.191-.54-.318-1.113-.477-1.716-.159.19-.286.35-.445.508-3.274 3.306-7.151 4.704-11.728 3.528-3.242-.826-5.467-3.782-5.563-7.151a12.145 12.145 0 01.318-3.21c.604-2.416 2.32-3.878 4.482-4.864 1.525-.699 3.178-.89 4.83-1.112 1.94-.254 3.847-.477 5.786-.763 1.303-.19 1.97-.89 2.161-2.193.413-2.638-.763-4.386-3.306-5.022a10.879 10.879 0 00-4.64-.159c-2.288.414-3.56 1.717-4.005 3.973.032.318-.032.636-.095.986zm12.173 5.086c-1.907 1.017-3.75 1.271-5.626 1.558-1.557.254-3.146.476-4.672.953-2.002.668-2.924 2.32-2.733 4.545.159 1.844 1.398 3.338 3.4 3.655 3.084.509 5.817-.35 7.978-2.638.636-.667 1.145-1.62 1.272-2.51.286-1.78.254-3.592.381-5.563zm58.896 5.34c-.095.445-.159.826-.254 1.176-1.78 5.435-5.404 7.755-9.79 8.264-7.596.826-11.951-4.132-13.063-9.408-.89-4.196-.763-8.36 1.081-12.3 1.748-3.72 4.545-6.167 8.708-6.898 4.99-.89 12.047 1.59 13.223 9.376.317 2.003.381 4.069.572 6.167H144.45c.159 2.86.604 5.53 2.702 7.596.858.858 1.97 1.271 3.178 1.494 3.909.699 7.151-1.176 8.423-4.959.127-.413.318-.54.731-.508h3.814zm-18.689-7.31h14.462c-.159-1.685-.445-3.242-1.24-4.704-.763-1.399-1.875-2.416-3.401-2.925-4.99-1.716-10.139 2.257-9.821 7.628zm29.082 15.828h-4.386V1.284h4.164v3.813c.318-.35.508-.572.699-.794 2.988-3.401 6.738-4.291 10.997-3.242 2.956.73 4.609 2.829 5.181 5.753.223 1.208.381 2.447.381 3.655.032 5.848.032 11.696.032 17.545 0 .159-.032.317-.032.508h-4.481v-.73c0-5.468.032-10.934-.032-16.401 0-1.208-.191-2.448-.54-3.624-.572-1.907-2.098-2.924-4.1-3.02-3.655-.126-6.548 1.812-7.438 5.054-.318 1.176-.413 2.416-.413 3.656-.032 4.799-.032 9.566-.032 14.302v.795zm-57.815-27.27h4.227v11.569c.255-.255.414-.382.573-.54 3.464-3.529 6.928-7.088 10.393-10.617.286-.317.572-.444 1.017-.444 1.621.031 3.274 0 5.054 0-.255.254-.382.413-.541.572-3.051 3.05-6.07 6.134-9.154 9.153-.349.35-.349.572-.127.954 3.338 5.308 6.643 10.616 9.949 15.924.127.19.222.381.381.667-.222.032-.381.032-.572.032h-4.545c-.413 0-.604-.159-.826-.477-2.543-4.259-5.086-8.518-7.629-12.809-.127-.19-.222-.381-.381-.604-1.176 1.176-2.32 2.289-3.464 3.465-.159.159-.191.445-.191.667v9.726h-2.448c-.572 0-1.366.16-1.684-.159-.286-.254-.127-1.08-.127-1.652V2.014c.095-.159.095-.413.095-.73zm-48.788-.032c-3.433 3.4-6.77 6.738-10.14 10.075a5091.844 5091.844 0 0110.744 17.227c-.286 0-.477.032-.668.032h-4.418c-.413 0-.667-.16-.89-.509a4524.81 4524.81 0 01-7.628-12.809c-.095-.19-.223-.35-.381-.604-.636.668-1.208 1.399-1.907 1.907-1.43 1.081-1.844 2.416-1.749 4.196.16 2.32.032 4.672.032 6.992v.763h-4.195V1.283h4.195v11.379c.096.063.19.127.255.19.127-.19.19-.412.317-.571 3.433-3.528 6.897-7.025 10.33-10.585.318-.317.604-.476 1.08-.444 1.431.031 2.861 0 4.292 0h.73zm8.39 4.545C77.609 2.682 79.866.076 84.06.838v4.673c-1.112.063-2.225.031-3.273.254-2.575.54-4.577 2.892-4.99 5.753-.064.572-.128 1.144-.128 1.716v15.352h-4.322V1.346h4.132v4.45z" fill="#fff"/></svg>
